X: 1
T: MUGBY JIM'S -- HIGHLAND FLING.
B: Ryan's Mammoth Collection of Fiddle Tunes
R: highland fling
M: C|
L: 1/8
Z: Contributed 20071129 by John Chambers jc:jc.tzo.net
K: A
kv[c2e2]v[ce2]<A v[d2e2]v[de2]<B | e>ca>c  (3efe (3dcB |\
kv[c2e2]v[ce2]<A v[d2e2]v[de2]<B | e>c (3Bcd (c<A) A2 :|
|: (ve>a)"4"c'>a f>a (e<c) | "2"e>"1"a"3"c'"1"a ("2"b"40"e' "40"e'2 |\
   (ve>a)"4"c'>a f>a  e>f  | ("4"e<c) B>"4"e (c<A) A2 :|
